X:1
T:Title
%%score { ( 1 3 ) | ( 2 4 ) }
L:1/8
Q:1/4=96
M:4/4
K:Eb
V:1 treble nm="Grand Piano"
V:3 treble 
V:2 bass 
V:4 bass 
V:1
 [G,E]2 [B,DF]>[B,DF] [B,EG]3 [B,EG] | [B,DB]2 D-[DG] [G,E]3 [B,DF] | %2
w: Robert~Lowry * * * *||
 [B,EG]2 [B,DF]2 [B,EG]2 [EB]2 | [DB]4 [DF]3 [EG] | [FA]2 [FA]2 [FA][Ac][GB]A | G2 G2 G2 [GB]2 | %6
w: ||||
 c2 c2 ce[Bd][Ac] |[M:3/4] [GB]2 [GB]2 [GB]2 |[M:1/4] G2 |[M:4/4] F3 G A2 G2 | [EG]4 [DF]2 [DB]2 | %11
w: |||||
 B3 E A2 G2 | [DF]4 z4 |] %13
w: ||
V:2
 E,2 B,,>B,, E,3 E, | B,,2 z B, E,3 B,, | E,2 B,,2 E,2 [E,G,]2 | [B,,F,]4 [B,,B,]3 [B,,B,] | %4
 [B,,B,]2 [B,,B,]2 [B,,B,]2 z F | [E,B,E]2 [E,B,E]2 [E,B,E]2 [E,E]2 | [A,EA]2 [A,EA]2 Ac [A,E]2 | %7
[M:3/4][K:bass] [E,E]2 [E,E]2 [E,E]2 |[M:1/4] [E,B,E]2 | %9
[M:4/4] [A,B,D]3 [G,B,E] [F,B,D]2 [E,B,E]2 | [B,,B,]4 [B,,B,]2 [B,,A,]2 | %11
 [E,G,E]3 [G,B,] [F,B,D]2 [E,B,E]2 | B,2 z2 z4 |] %13
V:3
 x8 | z2 .[A,F]2 z4 | x8 | x8 | x8 | x8 | x8 |[M:3/4] x6 |[M:1/4] x2 |[M:4/4] x8 | x8 | x8 | %12
 z2 A,2 E4 |] %13
V:4
 x8 | z2 B,,2 z4 | x8 | x8 | z4 z2 [B,,B,]2 | x8 | z4 [A,E]2 z2 |[M:3/4][K:bass] x6 |[M:1/4] x2 | %9
[M:4/4] x8 | x8 | x8 | B,,4 [E,G,]4 |] %13

